src/assets/ton.svg

<svg fill="none" height="48" viewBox="0 0 48 48" width="48" xmlns="http://www.w3.org/2000/svg" xmlns:xlink="http://www.w3.org/1999/xlink"><clipPath id="a"><rect height="48" rx="24" width="48"/></clipPath><g clip-path="url(#a)"><path d="m24 48c13.2555 0 24-10.7445 24-24s-10.7445-24-24-24-24 10.7445-24 24 10.7445 24 24 24z" fill="#0098ea"/><path d="m32.1945 13.395h-16.3905c-3.0135 0-4.923 3.2505-3.4065 5.88l10.1145 17.532c.66 1.1445 2.3145 1.1445 2.9745 0l10.1175-17.5335c1.515-2.6235-.396-5.8785-3.408-5.8785zm-9.69 18.153-2.2035-4.263-5.316-9.507c-.0808-.142-.1226-.3028-.1214-.4661.0013-.1634.0456-.3235.1285-.4643.0829-.1407.2015-.2571.3438-.3374.1423-.0802.3033-.1215.4666-.1197h6.6975v15.1605l.003-.003zm10.5045-13.7715-5.313 9.51-2.2035 4.2615v-15.1605h6.7005c.735 0 1.167.78.816 1.389z" fill="#fff"/></g></svg>

<svg xmlns="http://www.w3.org/2000/svg" width="48" height="48" fill="none" viewBox="0 0 48 48">
    <g clip-path="url(#clip0_7523_3138)">
        <path fill="#0098EA" d="M24 48C37.2555 48 48 37.2555 48 24C48 10.7445 37.2555 0 24 0C10.7445 0 0 10.7445 0 24C0 37.2555 10.7445 48 24 48Z"/>
        <path fill="white" d="M32.1945 13.395H15.804C12.7905 13.395 10.881 16.6455 12.3975 19.275L22.512 36.807C23.172 37.9515 24.8265 37.9515 25.4865 36.807L35.604 19.2735C37.119 16.65 35.208 13.395 32.196 13.395H32.1945ZM22.5045 31.548L20.301 27.285L14.985 17.778C14.9042 17.636 14.8624 17.4752 14.8636 17.3119C14.8649 17.1485 14.9092 16.9884 14.9921 16.8476C15.075 16.7069 15.1936 16.5905 15.3359 16.5102C15.4782 16.43 15.6392 16.3887 15.8025 16.3905H22.5V31.551L22.503 31.548H22.5045ZM33.009 17.7765L27.696 27.2865L25.4925 31.548V16.3875H32.193C32.928 16.3875 33.36 17.1675 33.009 17.7765Z"/>
    </g>
    <defs>
        <clipPath id="clip0_7523_3138">
            <rect width="48" height="48" fill="white" rx="24"/>
        </clipPath>
    </defs>
</svg>
